static/img/kroki/3c261f3350baf7222e6f78b0b3f41cca.svg

<?xml version="1.0" encoding="us-ascii" standalone="no"?><svg xmlns="http://www.w3.org/2000/svg" xmlns:xlink="http://www.w3.org/1999/xlink" contentStyleType="text/css" height="732px" preserveAspectRatio="none" style="width:1026px;height:732px;" version="1.1" viewBox="0 0 1026 732" width="1026px" zoomAndPan="magnify"><defs/><g><!--class aws_acm_certificate--><g id="elem_aws_acm_certificate"><rect codeLine="23" fill="#3D176E" height="39.7891" id="aws_acm_certificate" rx="2.5" ry="2.5" style="stroke:#000D19;stroke-width:0.5;" width="211" x="7" y="686.44"/><ellipse cx="22" cy="706.3345" fill="#ADD1B2" rx="11" ry="11" style="stroke:#181818;stroke-width:1.0;"/><path d="M24.9688,711.9752 Q24.3906,712.272 23.75,712.4127 Q23.1094,712.5689 22.4063,712.5689 Q19.9063,712.5689 18.5781,710.9283 Q17.2656,709.272 17.2656,706.147 Q17.2656,703.022 18.5781,701.3658 Q19.9063,699.7095 22.4063,699.7095 Q23.1094,699.7095 23.75,699.8658 Q24.4063,700.022 24.9688,700.3189 L24.9688,703.0377 Q24.3438,702.4595 23.75,702.1939 Q23.1563,701.9127 22.5313,701.9127 Q21.1875,701.9127 20.5,702.9908 Q19.8125,704.0533 19.8125,706.147 Q19.8125,708.2408 20.5,709.3189 Q21.1875,710.3814 22.5313,710.3814 Q23.1563,710.3814 23.75,710.1158 Q24.3438,709.8345 24.9688,709.2564 L24.9688,711.9752 Z " fill="#000000"/><text fill="#D9B8FF" font-family="Helvetica" font-size="17" lengthAdjust="spacing" textLength="169" x="41" y="712.2198">aws_acm_certificate</text></g><!--class aws_iam_server_certificate--><g id="elem_aws_iam_server_certificate"><rect codeLine="26" fill="#3D176E" height="39.7891" id="aws_iam_server_certificate" rx="2.5" ry="2.5" style="stroke:#000D19;stroke-width:0.5;" width="269" x="253" y="686.44"/><ellipse cx="268" cy="706.3345" fill="#ADD1B2" rx="11" ry="11" style="stroke:#181818;stroke-width:1.0;"/><path d="M270.9688,711.9752 Q270.3906,712.272 269.75,712.4127 Q269.1094,712.5689 268.4063,712.5689 Q265.9063,712.5689 264.5781,710.9283 Q263.2656,709.272 263.2656,706.147 Q263.2656,703.022 264.5781,701.3658 Q265.9063,699.7095 268.4063,699.7095 Q269.1094,699.7095 269.75,699.8658 Q270.4063,700.022 270.9688,700.3189 L270.9688,703.0377 Q270.3438,702.4595 269.75,702.1939 Q269.1563,701.9127 268.5313,701.9127 Q267.1875,701.9127 266.5,702.9908 Q265.8125,704.0533 265.8125,706.147 Q265.8125,708.2408 266.5,709.3189 Q267.1875,710.3814 268.5313,710.3814 Q269.1563,710.3814 269.75,710.1158 Q270.3438,709.8345 270.9688,709.2564 L270.9688,711.9752 Z " fill="#000000"/><text fill="#D9B8FF" font-family="Helvetica" font-size="17" lengthAdjust="spacing" textLength="227" x="287" y="712.2198">aws_iam_server_certificate</text></g><!--class certificate--><g id="elem_certificate"><rect codeLine="29" fill="#3D176E" height="126.6797" id="certificate" rx="2.5" ry="2.5" style="stroke:#000D19;stroke-width:0.5;" width="199" x="431" y="438.76"/><ellipse cx="479.75" cy="458.6545" fill="#ADD1B2" rx="11" ry="11" style="stroke:#181818;stroke-width:1.0;"/><path d="M482.7188,464.2952 Q482.1406,464.592 481.5,464.7327 Q480.8594,464.8889 480.1563,464.8889 Q477.6563,464.8889 476.3281,463.2483 Q475.0156,461.592 475.0156,458.467 Q475.0156,455.342 476.3281,453.6858 Q477.6563,452.0295 480.1563,452.0295 Q480.8594,452.0295 481.5,452.1858 Q482.1563,452.342 482.7188,452.6389 L482.7188,455.3577 Q482.0938,454.7795 481.5,454.5139 Q480.9063,454.2327 480.2813,454.2327 Q478.9375,454.2327 478.25,455.3108 Q477.5625,456.3733 477.5625,458.467 Q477.5625,460.5608 478.25,461.6389 Q478.9375,462.7014 480.2813,462.7014 Q480.9063,462.7014 481.5,462.4358 Q482.0938,462.1545 482.7188,461.5764 L482.7188,464.2952 Z " fill="#000000"/><text fill="#D9B8FF" font-family="Helvetica" font-size="17" lengthAdjust="spacing" textLength="83" x="505.25" y="464.5398">certificate</text><line style="stroke:#000D19;stroke-width:0.5;" x1="432" x2="629" y1="478.5491" y2="478.5491"/><text fill="#D9B8FF" font-family="sans-serif" font-size="14" font-weight="bold" lengthAdjust="spacing" textLength="88" x="442" y="500.5442">dns_names</text><text fill="#D9B8FF" font-family="sans-serif" font-size="14" lengthAdjust="spacing" textLength="58" x="530" y="500.5442">: string[]</text><text fill="#D9B8FF" font-family="sans-serif" font-size="14" font-weight="bold" lengthAdjust="spacing" textLength="59" x="442" y="526.8411">expires</text><text fill="#D9B8FF" font-family="sans-serif" font-size="14" lengthAdjust="spacing" textLength="70" x="501" y="526.8411">: datetime</text><text fill="#D9B8FF" font-family="sans-serif" font-size="14" font-weight="bold" lengthAdjust="spacing" textLength="129" x="442" y="553.1379">sha1_fingerprint</text><text fill="#D9B8FF" font-family="sans-serif" font-size="14" lengthAdjust="spacing" textLength="48" x="571" y="553.1379">: string</text></g><!--class digitalocean_certificate--><g id="elem_digitalocean_certificate"><rect codeLine="34" fill="#3D176E" height="39.7891" id="digitalocean_certificate" rx="2.5" ry="2.5" style="stroke:#000D19;stroke-width:0.5;" width="235" x="557" y="686.44"/><ellipse cx="572" cy="706.3345" fill="#ADD1B2" rx="11" ry="11" style="stroke:#181818;stroke-width:1.0;"/><path d="M574.9688,711.9752 Q574.3906,712.272 573.75,712.4127 Q573.1094,712.5689 572.4063,712.5689 Q569.9063,712.5689 568.5781,710.9283 Q567.2656,709.272 567.2656,706.147 Q567.2656,703.022 568.5781,701.3658 Q569.9063,699.7095 572.4063,699.7095 Q573.1094,699.7095 573.75,699.8658 Q574.4063,700.022 574.9688,700.3189 L574.9688,703.0377 Q574.3438,702.4595 573.75,702.1939 Q573.1563,701.9127 572.5313,701.9127 Q571.1875,701.9127 570.5,702.9908 Q569.8125,704.0533 569.8125,706.147 Q569.8125,708.2408 570.5,709.3189 Q571.1875,710.3814 572.5313,710.3814 Q573.1563,710.3814 573.75,710.1158 Q574.3438,709.8345 574.9688,709.2564 L574.9688,711.9752 Z " fill="#000000"/><text fill="#D9B8FF" font-family="Helvetica" font-size="17" lengthAdjust="spacing" textLength="193" x="591" y="712.2198">digitalocean_certificate</text></g><!--class gcp_ssl_certificate--><g id="elem_gcp_ssl_certificate"><rect codeLine="37" fill="#3D176E" height="39.7891" id="gcp_ssl_certificate" rx="2.5" ry="2.5" style="stroke:#000D19;stroke-width:0.5;" width="192" x="827.5" y="686.44"/><ellipse cx="842.5" cy="706.3345" fill="#ADD1B2" rx="11" ry="11" style="stroke:#181818;stroke-width:1.0;"/><path d="M845.4688,711.9752 Q844.8906,712.272 844.25,712.4127 Q843.6094,712.5689 842.9063,712.5689 Q840.4063,712.5689 839.0781,710.9283 Q837.7656,709.272 837.7656,706.147 Q837.7656,703.022 839.0781,701.3658 Q840.4063,699.7095 842.9063,699.7095 Q843.6094,699.7095 844.25,699.8658 Q844.9063,700.022 845.4688,700.3189 L845.4688,703.0377 Q844.8438,702.4595 844.25,702.1939 Q843.6563,701.9127 843.0313,701.9127 Q841.6875,701.9127 841,702.9908 Q840.3125,704.0533 840.3125,706.147 Q840.3125,708.2408 841,709.3189 Q841.6875,710.3814 843.0313,710.3814 Q843.6563,710.3814 844.25,710.1158 Q844.8438,709.8345 845.4688,709.2564 L845.4688,711.9752 Z " fill="#000000"/><text fill="#D9B8FF" font-family="Helvetica" font-size="17" lengthAdjust="spacing" textLength="150" x="861.5" y="712.2198">gcp_ssl_certificate</text></g><!--class resource--><g id="elem_resource"><rect codeLine="40" fill="#3D176E" height="310.7578" id="resource" rx="2.5" ry="2.5" style="stroke:#000D19;stroke-width:0.5;" width="227" x="417" y="7"/><ellipse cx="485.75" cy="26.8945" fill="#ADD1B2" rx="11" ry="11" style="stroke:#181818;stroke-width:1.0;"/><path d="M488.7188,32.5352 Q488.1406,32.832 487.5,32.9727 Q486.8594,33.1289 486.1563,33.1289 Q483.6563,33.1289 482.3281,31.4883 Q481.0156,29.832 481.0156,26.707 Q481.0156,23.582 482.3281,21.9258 Q483.6563,20.2695 486.1563,20.2695 Q486.8594,20.2695 487.5,20.4258 Q488.1563,20.582 488.7188,20.8789 L488.7188,23.5977 Q488.0938,23.0195 487.5,22.7539 Q486.9063,22.4727 486.2813,22.4727 Q484.9375,22.4727 484.25,23.5508 Q483.5625,24.6133 483.5625,26.707 Q483.5625,28.8008 484.25,29.8789 Q484.9375,30.9414 486.2813,30.9414 Q486.9063,30.9414 487.5,30.6758 Q488.0938,30.3945 488.7188,29.8164 L488.7188,32.5352 Z " fill="#000000"/><text fill="#D9B8FF" font-family="Helvetica" font-size="17" lengthAdjust="spacing" textLength="71" x="511.25" y="32.7798">resource</text><line style="stroke:#000D19;stroke-width:0.5;" x1="418" x2="643" y1="46.7891" y2="46.7891"/><text fill="#D9B8FF" font-family="sans-serif" font-size="14" font-weight="bold" lengthAdjust="spacing" textLength="29" x="428" y="68.7842">age</text><text fill="#D9B8FF" font-family="sans-serif" font-size="14" lengthAdjust="spacing" textLength="66" x="457" y="68.7842">: duration</text><text fill="#D9B8FF" font-family="sans-serif" font-size="14" font-weight="bold" lengthAdjust="spacing" textLength="43" x="428" y="95.0811">atime</text><text fill="#D9B8FF" font-family="sans-serif" font-size="14" lengthAdjust="spacing" textLength="70" x="471" y="95.0811">: datetime</text><text fill="#D9B8FF" font-family="sans-serif" font-size="14" font-weight="bold" lengthAdjust="spacing" textLength="43" x="428" y="121.3779">ctime</text><text fill="#D9B8FF" font-family="sans-serif" font-size="14" lengthAdjust="spacing" textLength="70" x="471" y="121.3779">: datetime</text><text fill="#D9B8FF" font-family="sans-serif" font-size="14" font-weight="bold" lengthAdjust="spacing" textLength="14" x="428" y="147.6748">id</text><text fill="#D9B8FF" font-family="sans-serif" font-size="14" lengthAdjust="spacing" textLength="48" x="442" y="147.6748">: string</text><text fill="#D9B8FF" font-family="sans-serif" font-size="14" font-weight="bold" lengthAdjust="spacing" textLength="33" x="428" y="173.9717">kind</text><text fill="#D9B8FF" font-family="sans-serif" font-size="14" lengthAdjust="spacing" textLength="48" x="461" y="173.9717">: string</text><text fill="#D9B8FF" font-family="sans-serif" font-size="14" font-weight="bold" lengthAdjust="spacing" textLength="90" x="428" y="200.2686">last_access</text><text fill="#D9B8FF" font-family="sans-serif" font-size="14" lengthAdjust="spacing" textLength="66" x="518" y="200.2686">: duration</text><text fill="#D9B8FF" font-family="sans-serif" font-size="14" font-weight="bold" lengthAdjust="spacing" textLength="90" x="428" y="226.5654">last_update</text><text fill="#D9B8FF" font-family="sans-serif" font-size="14" lengthAdjust="spacing" textLength="66" x="518" y="226.5654">: duration</text><text fill="#D9B8FF" font-family="sans-serif" font-size="14" font-weight="bold" lengthAdjust="spacing" textLength="48" x="428" y="252.8623">mtime</text><text fill="#D9B8FF" font-family="sans-serif" font-size="14" lengthAdjust="spacing" textLength="70" x="476" y="252.8623">: datetime</text><text fill="#D9B8FF" font-family="sans-serif" font-size="14" font-weight="bold" lengthAdjust="spacing" textLength="43" x="428" y="279.1592">name</text><text fill="#D9B8FF" font-family="sans-serif" font-size="14" lengthAdjust="spacing" textLength="48" x="471" y="279.1592">: string</text><text fill="#D9B8FF" font-family="sans-serif" font-size="14" font-weight="bold" lengthAdjust="spacing" textLength="34" x="428" y="305.4561">tags</text><text fill="#D9B8FF" font-family="sans-serif" font-size="14" lengthAdjust="spacing" textLength="171" x="462" y="305.4561">: dictionary[string, string]</text></g><!--reverse link certificate to aws_acm_certificate--><g id="link_certificate_aws_acm_certificate"><path codeLine="52" d="M414.4372,559.2501 C325.4472,602.3101 215.96,655.28 152.49,685.99 " fill="none" id="certificate-backto-aws_acm_certificate" style="stroke:#FFAF37;stroke-width:2.0;"/><polygon fill="none" points="430.64,551.41,411.8238,553.8492,417.0505,564.6511,430.64,551.41" style="stroke:#FFAF37;stroke-width:2.0;"/></g><!--reverse link certificate to aws_iam_server_certificate--><g id="link_certificate_aws_iam_server_certificate"><path codeLine="53" d="M475.8391,580.398 C446.4791,621.928 420.3,658.95 400.95,686.31 " fill="none" id="certificate-backto-aws_iam_server_certificate" style="stroke:#FFAF37;stroke-width:2.0;"/><polygon fill="none" points="486.23,565.7,470.9398,576.9343,480.7385,583.8616,486.23,565.7" style="stroke:#FFAF37;stroke-width:2.0;"/></g><!--reverse link resource to certificate--><g id="link_resource_certificate"><path codeLine="54" d="M530.5,335.91 C530.5,378.46 530.5,404.24 530.5,438.32 " fill="none" id="resource-backto-certificate" style="stroke:#FFAF37;stroke-width:2.0;"/><polygon fill="none" points="530.5,317.91,524.5,335.91,536.5,335.91,530.5,317.91" style="stroke:#FFAF37;stroke-width:2.0;"/></g><!--reverse link certificate to digitalocean_certificate--><g id="link_certificate_digitalocean_certificate"><path codeLine="55" d="M585.5202,580.3629 C615.0902,621.8929 641.47,658.95 660.95,686.31 " fill="none" id="certificate-backto-digitalocean_certificate" style="stroke:#FFAF37;stroke-width:2.0;"/><polygon fill="none" points="575.08,565.7,580.6326,583.843,590.4079,576.8829,575.08,565.7" style="stroke:#FFAF37;stroke-width:2.0;"/></g><!--reverse link certificate to gcp_ssl_certificate--><g id="link_certificate_gcp_ssl_certificate"><path codeLine="56" d="M646.4351,562.7662 C729.6651,605.5962 827.66,656.02 885.9,685.99 " fill="none" id="certificate-backto-gcp_ssl_certificate" style="stroke:#FFAF37;stroke-width:2.0;"/><polygon fill="none" points="630.43,554.53,643.6897,568.1013,649.1806,557.4312,630.43,554.53" style="stroke:#FFAF37;stroke-width:2.0;"/></g><!--SRC=[XPDBRzim48Jl-XK4SXDgm6xGEYvwIGqKxIKecjw2G5YJAvcmI0hBLLptyTzBMebBw-5SPpxjp2wXhLOeq3Hy40RD1ibdVgTj0mH6t1Av_ThLZiHLMK9vlUoRdvtbLu4xC2Y-OFs4h2NqYHzRBNSMlHTl4-iJo5r5hhMg6yy4rWSBBIVKkWRlRvb9Rrh6f8nQRMxAia_sXrvTgyNoFGumHmhf6PdFvsgnwYElHbtS-qJSwrye5kdHxXpZeEOWuaXTR1c9fEHWqHT_ikCtK4hRIhnBjEzT9x98P_hz5fJRHxg4sgSndf7GyQ71zM0hNDseSZaAVvs2CnbF9s3l2v2ca4Yior2SKVpEih-9hS4K7ka9QOewb_DSML_OS0wVvnz25mhxF3m67NyscZfL1PQrmQ3wBIoACZ18JK3v_qUd0AKhpL0xYM2dIbIoARolf-oGwrgINK6ey5YY9M3jR5HYcLunEQ9fbTJByt3nSo5aSJYe37zXB-7ej4sSrNFCI4uytzbWXggRg6Ny3EZmq7bldfd7k6go-yS_izbix7qdgF5dpavtwyZBSwRUQGGTUQxi7m00]--></g></svg>

<svg xmlns="http://www.w3.org/2000/svg" width="1026" height="732" viewBox="0 0 1026 732"><rect width="211" height="39.789" x="7" y="686.44" fill="#3D176E" rx="2.5" ry="2.5" style="stroke:#000d19;stroke-width:.5"/><circle cx="22" cy="706.335" r="11" fill="#ADD1B2" style="stroke:#181818;stroke-width:1"/><path d="M24.969 711.975q-.578.297-1.219.438-.64.156-1.344.156-2.5 0-3.828-1.64-1.312-1.657-1.312-4.782t1.312-4.781q1.328-1.656 3.828-1.656.703 0 1.344.156.656.156 1.219.453v2.719q-.625-.578-1.219-.844-.594-.281-1.219-.281-1.343 0-2.031 1.078-.687 1.062-.687 3.156t.687 3.172q.688 1.062 2.031 1.062.625 0 1.219-.265.594-.281 1.219-.86z"/><text x="41" y="712.22" fill="#D9B8FF" font-family="Helvetica" font-size="17" textLength="169">aws_acm_certificate</text><rect width="269" height="39.789" x="253" y="686.44" fill="#3D176E" rx="2.5" ry="2.5" style="stroke:#000d19;stroke-width:.5"/><circle cx="268" cy="706.335" r="11" fill="#ADD1B2" style="stroke:#181818;stroke-width:1"/><path d="M270.969 711.975q-.578.297-1.219.438-.64.156-1.344.156-2.5 0-3.828-1.64-1.312-1.657-1.312-4.782t1.312-4.781q1.328-1.656 3.828-1.656.703 0 1.344.156.656.156 1.219.453v2.719q-.625-.578-1.219-.844-.594-.281-1.219-.281-1.344 0-2.031 1.078-.687 1.062-.687 3.156t.687 3.172q.688 1.062 2.031 1.062.625 0 1.219-.265.594-.281 1.219-.86z"/><text x="287" y="712.22" fill="#D9B8FF" font-family="Helvetica" font-size="17" textLength="227">aws_iam_server_certificate</text><rect width="199" height="126.68" x="431" y="438.76" fill="#3D176E" rx="2.5" ry="2.5" style="stroke:#000d19;stroke-width:.5"/><circle cx="479.75" cy="458.654" r="11" fill="#ADD1B2" style="stroke:#181818;stroke-width:1"/><path d="M482.719 464.295q-.578.297-1.219.438-.64.156-1.344.156-2.5 0-3.828-1.64-1.312-1.657-1.312-4.782t1.312-4.781q1.328-1.656 3.828-1.656.703 0 1.344.156.656.156 1.219.453v2.719q-.625-.579-1.219-.844-.594-.281-1.219-.281-1.344 0-2.031 1.078-.687 1.062-.687 3.156t.687 3.172q.688 1.062 2.031 1.062.625 0 1.219-.265.594-.281 1.219-.86z"/><text x="505.25" y="464.54" fill="#D9B8FF" font-family="Helvetica" font-size="17" textLength="83">certificate</text><path d="M432 478.549h197" style="stroke:#000d19;stroke-width:.5"/><text x="442" y="500.544" fill="#D9B8FF" font-family="sans-serif" font-size="14" font-weight="bold" textLength="88">dns_names</text><text x="530" y="500.544" fill="#D9B8FF" font-family="sans-serif" font-size="14" textLength="58">: string[]</text><text x="442" y="526.841" fill="#D9B8FF" font-family="sans-serif" font-size="14" font-weight="bold" textLength="59">expires</text><text x="501" y="526.841" fill="#D9B8FF" font-family="sans-serif" font-size="14" textLength="70">: datetime</text><text x="442" y="553.138" fill="#D9B8FF" font-family="sans-serif" font-size="14" font-weight="bold" textLength="129">sha1_fingerprint</text><text x="571" y="553.138" fill="#D9B8FF" font-family="sans-serif" font-size="14" textLength="48">: string</text><rect width="235" height="39.789" x="557" y="686.44" fill="#3D176E" rx="2.5" ry="2.5" style="stroke:#000d19;stroke-width:.5"/><circle cx="572" cy="706.335" r="11" fill="#ADD1B2" style="stroke:#181818;stroke-width:1"/><path d="M574.969 711.975q-.578.297-1.219.438-.64.156-1.344.156-2.5 0-3.828-1.64-1.312-1.657-1.312-4.782t1.312-4.781q1.328-1.656 3.828-1.656.703 0 1.344.156.656.156 1.219.453v2.719q-.625-.578-1.219-.844-.594-.281-1.219-.281-1.343 0-2.031 1.078-.687 1.062-.687 3.156t.687 3.172q.688 1.062 2.031 1.062.625 0 1.219-.265.594-.281 1.219-.86z"/><text x="591" y="712.22" fill="#D9B8FF" font-family="Helvetica" font-size="17" textLength="193">digitalocean_certificate</text><rect width="192" height="39.789" x="827.5" y="686.44" fill="#3D176E" rx="2.5" ry="2.5" style="stroke:#000d19;stroke-width:.5"/><circle cx="842.5" cy="706.335" r="11" fill="#ADD1B2" style="stroke:#181818;stroke-width:1"/><path d="M845.469 711.975q-.578.297-1.219.438-.64.156-1.344.156-2.5 0-3.828-1.64-1.312-1.657-1.312-4.782t1.312-4.781q1.328-1.656 3.828-1.656.703 0 1.344.156.656.156 1.219.453v2.719q-.625-.578-1.219-.844-.594-.281-1.219-.281-1.343 0-2.031 1.078-.687 1.062-.687 3.156t.687 3.172q.688 1.062 2.031 1.062.625 0 1.219-.265.594-.281 1.219-.86z"/><text x="861.5" y="712.22" fill="#D9B8FF" font-family="Helvetica" font-size="17" textLength="150">gcp_ssl_certificate</text><rect width="227" height="310.758" x="417" y="7" fill="#3D176E" rx="2.5" ry="2.5" style="stroke:#000d19;stroke-width:.5"/><circle cx="485.75" cy="26.895" r="11" fill="#ADD1B2" style="stroke:#181818;stroke-width:1"/><path d="M488.719 32.535q-.578.297-1.219.438-.64.156-1.344.156-2.5 0-3.828-1.64-1.312-1.657-1.312-4.782t1.312-4.781q1.328-1.656 3.828-1.656.703 0 1.344.156.656.156 1.219.453v2.719q-.625-.578-1.219-.844-.594-.281-1.219-.281-1.344 0-2.031 1.078-.687 1.062-.687 3.156t.687 3.172q.688 1.062 2.031 1.062.625 0 1.219-.265.594-.281 1.219-.86z"/><text x="511.25" y="32.78" fill="#D9B8FF" font-family="Helvetica" font-size="17" textLength="71">resource</text><path d="M418 46.789h225" style="stroke:#000d19;stroke-width:.5"/><text x="428" y="68.784" fill="#D9B8FF" font-family="sans-serif" font-size="14" font-weight="bold" textLength="29">age</text><text x="457" y="68.784" fill="#D9B8FF" font-family="sans-serif" font-size="14" textLength="66">: duration</text><text x="428" y="95.081" fill="#D9B8FF" font-family="sans-serif" font-size="14" font-weight="bold" textLength="43">atime</text><text x="471" y="95.081" fill="#D9B8FF" font-family="sans-serif" font-size="14" textLength="70">: datetime</text><text x="428" y="121.378" fill="#D9B8FF" font-family="sans-serif" font-size="14" font-weight="bold" textLength="43">ctime</text><text x="471" y="121.378" fill="#D9B8FF" font-family="sans-serif" font-size="14" textLength="70">: datetime</text><text x="428" y="147.675" fill="#D9B8FF" font-family="sans-serif" font-size="14" font-weight="bold" textLength="14">id</text><text x="442" y="147.675" fill="#D9B8FF" font-family="sans-serif" font-size="14" textLength="48">: string</text><text x="428" y="173.972" fill="#D9B8FF" font-family="sans-serif" font-size="14" font-weight="bold" textLength="33">kind</text><text x="461" y="173.972" fill="#D9B8FF" font-family="sans-serif" font-size="14" textLength="48">: string</text><text x="428" y="200.269" fill="#D9B8FF" font-family="sans-serif" font-size="14" font-weight="bold" textLength="90">last_access</text><text x="518" y="200.269" fill="#D9B8FF" font-family="sans-serif" font-size="14" textLength="66">: duration</text><text x="428" y="226.565" fill="#D9B8FF" font-family="sans-serif" font-size="14" font-weight="bold" textLength="90">last_update</text><text x="518" y="226.565" fill="#D9B8FF" font-family="sans-serif" font-size="14" textLength="66">: duration</text><text x="428" y="252.862" fill="#D9B8FF" font-family="sans-serif" font-size="14" font-weight="bold" textLength="48">mtime</text><text x="476" y="252.862" fill="#D9B8FF" font-family="sans-serif" font-size="14" textLength="70">: datetime</text><text x="428" y="279.159" fill="#D9B8FF" font-family="sans-serif" font-size="14" font-weight="bold" textLength="43">name</text><text x="471" y="279.159" fill="#D9B8FF" font-family="sans-serif" font-size="14" textLength="48">: string</text><text x="428" y="305.456" fill="#D9B8FF" font-family="sans-serif" font-size="14" font-weight="bold" textLength="34">tags</text><text x="462" y="305.456" fill="#D9B8FF" font-family="sans-serif" font-size="14" textLength="171">: dictionary[string, string]</text><g fill="none"><path d="M414.437 559.25c-88.99 43.06-198.477 96.03-261.947 126.74" style="stroke:#ffaf37;stroke-width:2"/><path d="m430.64 551.41-18.816 2.44 5.226 10.801z" style="stroke:#ffaf37;stroke-width:2"/></g><g fill="none"><path d="M475.84 580.398c-29.36 41.53-55.54 78.552-74.89 105.912" style="stroke:#ffaf37;stroke-width:2"/><path d="m486.23 565.7-15.29 11.234 9.798 6.928z" style="stroke:#ffaf37;stroke-width:2"/></g><path fill="none" d="M530.5 335.91v102.41m0-120.41-6 18h12z" style="stroke:#ffaf37;stroke-width:2"/><g fill="none"><path d="M585.52 580.363c29.57 41.53 55.95 78.587 75.43 105.947" style="stroke:#ffaf37;stroke-width:2"/><path d="m575.08 565.7 5.553 18.143 9.775-6.96z" style="stroke:#ffaf37;stroke-width:2"/></g><g fill="none"><path d="M646.435 562.766c83.23 42.83 181.225 93.254 239.465 123.224" style="stroke:#ffaf37;stroke-width:2"/><path d="m630.43 554.53 13.26 13.571 5.49-10.67z" style="stroke:#ffaf37;stroke-width:2"/></g></svg>
